packages/foundations/assets/icons/functional/images/layout/zoom_out_28.svg

<svg width="28" height="28" viewBox="0 0 28 28" fill="none" xmlns="http://www.w3.org/2000/svg">
<g clip-path="url(#clip0_185_1529)">
<path fill-rule="evenodd" clip-rule="evenodd" d="M10.4999 1.74994C15.3399 1.74994 19.25 5.66023 19.2498 10.4999C19.25 12.6055 18.5118 14.5196 17.2812 16.0509L26.004 24.7462C26.168 24.9102 26.25 25.129 26.25 25.375C26.25 25.8672 25.8399 26.25 25.3477 26.25C25.1562 26.25 24.9375 26.1953 24.7461 26.004L16.0508 17.2813C14.5196 18.5118 12.6055 19.25 10.4999 19.2499C5.6602 19.25 1.75 15.3399 1.75 10.4999C1.75 5.66023 5.6602 1.74994 10.4999 1.74994ZM10.4999 3.49994C6.64458 3.49994 3.5 6.6446 3.5 10.4999C3.5 14.3555 6.64458 17.5 10.4999 17.4999C14.3555 17.5 17.5 14.3555 17.4998 10.4999C17.5 6.6446 14.3555 3.49994 10.4999 3.49994ZM13.9999 9.62494C14.4649 9.62503 14.8749 10.0352 14.8749 10.4999C14.8749 10.9649 14.4649 11.375 13.9999 11.3749H6.99991C6.5352 11.375 6.12491 10.9649 6.12491 10.4999C6.12491 10.0351 6.5352 9.62503 6.99991 9.62494H13.9999Z" fill="#1A1C1F"/>
</g>
<defs>
<clipPath id="clip0_185_1529">
<rect width="28" height="28" fill="white"/>
</clipPath>
</defs>
</svg>

<svg xmlns="http://www.w3.org/2000/svg" width="28" height="28" fill="none"><g clip-path="url(#a)"><path fill="#1A1C1F" fill-rule="evenodd" d="M10.5 1.75a8.74 8.74 0 0 1 8.75 8.75c0 2.105-.738 4.02-1.969 5.55l8.723 8.696a.87.87 0 0 1 .246.629c0 .492-.41.875-.902.875a.82.82 0 0 1-.602-.246l-8.695-8.723A8.8 8.8 0 0 1 10.5 19.25a8.74 8.74 0 0 1-8.75-8.75 8.74 8.74 0 0 1 8.75-8.75m0 1.75c-3.855 0-7 3.145-7 7s3.145 7 7 7 7-3.145 7-7-3.145-7-7-7M14 9.625a.9.9 0 0 1 .875.875.9.9 0 0 1-.875.875H7a.9.9 0 0 1-.875-.875A.9.9 0 0 1 7 9.625z" clip-rule="evenodd"/></g><defs><clipPath id="a"><path fill="#fff" d="M0 0h28v28H0z"/></clipPath></defs></svg>
